X:587
T: ACH WIE ISTS MOEGLICH
N: E0548
O: Europa, Mitteleuropa, Deutschland, Hildburghausen
R: Liebes - Lied, Treue
M: 3/4
L: 1/8
K: F
 | c2cdcB | B3AA2 |
A2ABAG | G3FF2 |
G2G2G2 | A3Bc2 |
c2dcBA | A2G2z2 |
c2c2c2 | d3efd |
c2cdcB | AGABA2 |
F2A2c2 | cBGBA2 |
c2dBGE | G2F2z2

@@@ Tune index: 4237
